app/img/src/logo/Emirates_Airlines.svg

<svg width="90" height="62" viewBox="0 0 90 62" fill="none" xmlns="http://www.w3.org/2000/svg">
<path fill-rule="evenodd" clip-rule="evenodd" d="M50.5143 3.66187C50.2593 3.92839 49.3621 5.28659 49.3621 6.96922C49.3621 7.37206 49.3693 17.0178 49.3621 17.3633C49.3478 18.0972 48.9002 19.1433 48.5315 19.5118C48.2708 19.7727 46.6726 21.2267 46.5308 21.3794L47.4372 21.3938C47.7316 21.1114 50.8108 18.3801 51.1329 18.0126C51.5518 17.536 52.5499 16.3285 52.5499 14.4326C52.5499 13.9862 52.555 4.84786 52.555 4.4445C52.555 2.94587 53.2524 2.11455 53.6124 1.71324C53.9806 1.30117 55.1943 0.288416 55.4094 0.0598286L54.4584 0.0311272C54.229 0.261252 50.8308 3.33078 50.5143 3.66187Z" fill="black"/>
<path fill-rule="evenodd" clip-rule="evenodd" d="M42.8914 41.4591L46.6614 44.7557H49.1854C51.7526 44.7557 54.0989 43.6563 55.6465 42.1069C57.1961 40.556 57.766 38.4741 57.766 36.526C57.766 35.1078 57.766 31.3818 57.766 31.1224C57.766 29.3065 56.6266 28.2507 56.3102 27.934C56.1376 27.7613 55.0391 26.7249 55.0391 26.7249V30.8708C55.0391 30.8708 56.2492 32.1214 56.4878 32.3745C57.6057 33.5641 57.594 35.7285 54.0534 39.183C53.4332 39.7877 51.6645 41.4591 49.2305 41.4591C48.8833 41.4591 42.8914 41.4591 42.8914 41.4591Z" fill="black"/>
<path fill-rule="evenodd" clip-rule="evenodd" d="M53.379 19.2844C52.9581 19.7293 52.5556 20.8179 52.5556 21.7769C52.5556 22.3094 52.5556 23.8229 52.5556 23.8229C52.5556 23.8229 54.2204 23.8229 54.6285 23.8229C55.4335 23.8229 56.4982 23.0884 56.7281 22.6999C56.7424 22.6712 56.7281 20.6703 56.7281 20.6703C56.7281 20.6703 57.2602 21.4335 57.8352 21.8363C58.0513 21.5631 59.9389 19.2721 61.5192 19.2593C64.158 19.2383 63.5614 22.5703 62.483 23.6358C62.1337 23.9792 60.5754 25.4097 60.0936 25.8684C58.8476 27.0559 56.7138 26.4875 56.7138 23.4195C56.7138 23.4195 54.4252 25.5947 54.0816 25.8827C53.7365 26.1708 52.5556 27.4234 52.5556 27.4234C52.5556 27.4234 52.5556 32.2955 52.5556 32.8136C52.5556 35.3988 51.7055 36.2665 51.0009 37.044C50.7269 37.3459 47.8183 40.0013 47.4301 40.2899L46.4791 40.3114C46.4791 40.3114 48.1813 38.762 48.5229 38.4079C48.9111 38.0045 49.3627 37.1855 49.3627 35.8217C49.3627 35.4767 49.3197 27.3506 49.3197 27.3506C49.3197 27.3506 36.6639 27.3506 36.0883 27.3506C31.4862 27.3506 30.5025 22.2392 30.4738 20.8717C30.4666 20.4689 30.4738 16.3861 30.4738 15.7526C30.4738 14.9126 29.9366 13.4949 29.0789 13.0577H30.377C30.526 13.1203 31.3418 13.4498 31.3418 16.5839C31.3418 16.5839 31.2865 20.2311 31.2865 20.4253C31.2865 22.0142 32.5488 23.8372 34.3728 23.8372C34.7472 23.8372 49.3484 23.8229 49.3484 23.8229C49.3627 23.4195 49.7652 21.8901 50.4847 21.0824C50.8928 20.6268 54.1052 17.6854 54.4718 17.4024L55.4228 17.3917C55.2794 17.5234 53.7262 18.918 53.379 19.2844ZM58.2956 22.3545C58.2956 22.3545 59.1626 23.5061 59.5758 23.8372C61.1884 25.1329 61.954 23.7419 60.8719 22.2535C60.4438 21.6667 58.7847 21.8363 58.2956 22.3545Z" fill="black"/>
<path fill-rule="evenodd" clip-rule="evenodd" d="M42.2379 32.0108C42.2379 32.7345 39.9283 34.656 39.7931 34.7908C39.6257 34.0117 39.0434 33.1502 37.3213 31.426L39.849 28.8967C41.5424 30.5932 42.2379 30.955 42.2379 32.0108Z" fill="black"/>
<path fill-rule="evenodd" clip-rule="evenodd" d="M46.6215 3.01161C47.1285 3.51953 48.2192 4.89567 47.5648 5.55221C46.9861 6.13188 46.0895 7.04982 46.0895 7.04982C46.0444 6.71821 45.2046 5.92175 45.2046 5.92175C45.2046 5.92175 45.2117 8.36445 45.2046 8.66736C45.1759 9.77032 44.7606 10.085 44.7606 10.085C44.7606 10.085 46.7977 12.1074 46.7977 14.7054C46.7977 15.9652 46.8028 17.1241 46.8028 17.3737C46.8028 17.9062 46.6681 18.3183 46.2979 18.7273C46.114 18.9302 44.2265 20.8286 43.9392 21.0874C43.3923 21.5805 42.8172 21.663 42.386 21.663C42.0839 21.663 35.5671 21.663 35.3658 21.663C34.2602 21.663 33.1218 20.7999 33.1218 19.9363C33.1218 19.72 33.1362 17.3306 33.1362 17.3306C33.4962 17.7483 33.8623 18.2357 34.7472 18.2229C35.4375 18.2127 36.1636 17.6694 36.3577 17.4746C36.5595 17.2717 41.6686 11.9255 41.6686 11.9255C41.6686 11.9255 39.2756 9.70574 37.6994 8.65096C36.9297 8.13484 35.9086 8.78626 35.754 9.46434C35.2706 11.5913 35.754 14.7808 35.754 14.7808C35.754 14.7808 34.1916 13.2212 33.8162 12.8455C33.0358 12.0623 33.0645 10.2921 33.9939 9.36183C34.1414 9.21371 35.5578 7.61104 37.3573 7.61104C37.6451 7.61104 39.842 7.61104 40.16 7.61104C42.0404 7.61104 44.0974 9.48586 44.0974 9.48586C44.0974 9.48586 44.3996 9.15477 44.3996 8.83444C44.3996 7.86986 44.3632 5.26827 44.3632 5.26827C42.9488 3.85267 42.7558 2.39145 43.4338 1.71287C44.6997 0.446412 45.1595 5.00515e-07 45.1595 5.00515e-07C45.1595 5.00515e-07 45.1457 1.53656 46.6215 3.01161ZM37.8141 17.1292C37.1218 17.8544 37.0014 18.0359 36.3546 18.4243C36.412 18.4243 44.0145 18.4243 44.2608 18.4243C46.4039 18.4243 45.9778 17.0933 45.5927 16.4219C44.8057 15.0458 42.3174 12.4872 42.3174 12.4872C42.3174 12.4872 37.958 16.9759 37.8141 17.1292Z" fill="black"/>
<path fill-rule="evenodd" clip-rule="evenodd" d="M28.7979 24.3313H27.4998C27.4998 24.3313 28.8947 25.0981 28.8947 27.0754C28.8947 27.5972 28.8947 32.9592 28.8947 33.3908C28.8947 37.5002 32.2811 41.3001 36.3968 41.3001C37.0886 41.3001 39.3741 41.3001 39.8339 41.3001C41.8982 41.3001 42.6223 40.8004 43.8697 39.6918C44.327 39.2848 44.9216 38.6175 45.1387 38.3746C45.8582 37.5689 46.6237 36.9175 46.6237 34.8012C46.6237 34.2831 46.6237 33.0217 46.6237 32.7342C46.6237 30.9475 45.5903 30.2044 45.0905 29.7042C44.7705 29.3838 43.8912 28.5433 43.8912 28.5433V32.7768C43.8912 32.7768 44.7577 33.7003 45.1387 34.0007C46.9243 35.4112 45.5038 37.86 43.8482 37.86C43.5174 37.86 36.7599 37.8621 36.2995 37.8744C33.5204 37.943 29.7632 35.4619 29.7632 31.2894C29.7632 30.7277 29.7632 28.2214 29.7632 27.8575C29.7632 24.3313 28.7979 24.3313 28.7979 24.3313Z" fill="black"/>
<path fill-rule="evenodd" clip-rule="evenodd" d="M37.0714 32.0223C37.0714 32.7434 34.7613 34.6664 34.6266 34.8017C34.4612 34.0222 33.8769 33.1611 32.1548 31.437L34.6819 28.9071C36.3775 30.6041 37.0714 30.9639 37.0714 32.0223Z" fill="black"/>
<path fill-rule="evenodd" clip-rule="evenodd" d="M10.6428 60.1085C10.231 60.1085 7.05403 60.1034 6.59981 60.1034C5.32471 60.1034 5.422 59.0435 5.31037 58.1378V52.3319C5.31037 52.3319 6.19526 52.3104 7.19793 52.3104C8.31838 52.3104 9.71331 52.1448 11.0703 52.9131C11.0703 52.9131 10.0943 50.5581 7.19076 50.5581H5.31037C5.31037 50.5581 5.31037 50.2234 5.31037 49.4167V48.6971C5.31037 48.6971 5.31037 47.0764 4.91503 46.5977C4.91503 46.5977 7.41557 46.6065 7.58609 46.6065C9.89818 46.6085 11.6854 46.5726 13.5443 47.8119C13.5443 47.8119 13.1884 44.7496 8.72293 44.7496C6.14661 44.7496 0.36512 44.7496 -1.48463e-07 44.7496C-1.48463e-07 44.7496 1.51374 46.0473 1.47226 48.6883L1.51374 59.2685C1.51374 61.9239 2.57581 61.9977 2.57581 61.9977C2.67874 61.9977 3.21592 61.9977 5.55515 61.9977C5.94689 61.9977 6.42007 61.9977 6.93574 61.9977C8.19804 61.9977 9.84082 61.9977 11.1728 61.9977C13.1213 61.9977 13.7993 60.6031 13.7993 59.8476L13.8285 58.8328C13.8285 58.8328 13.2099 60.1085 10.6428 60.1085Z" fill="black"/>
<path fill-rule="evenodd" clip-rule="evenodd" d="M33.5284 59.2143V51.8139C33.5284 48.9422 31.184 48.179 29.4383 48.179C27.1267 48.179 26.4344 50.1118 26.1394 50.776C25.6238 48.9745 23.8222 48.158 22.3443 48.158C19.5524 48.158 18.8442 50.8186 18.8442 50.8186C18.8442 50.8186 18.7781 48.2498 16.5362 48.2498L14.3394 48.2549C14.3394 48.2549 15.6119 48.7787 15.6119 50.999L15.6083 59.2158C15.6083 61.9291 16.7011 61.9763 16.7011 61.9763H20.3221C20.2289 61.9291 18.9323 60.9507 18.9323 59.1927V51.9041C18.9773 51.5802 19.5237 50.4787 21.0856 50.4787C21.9705 50.4787 22.9435 51.4018 22.9215 52.4402L22.9179 59.2122C22.9179 61.9655 23.9969 61.9727 23.9969 61.9727H27.6317C27.6317 61.9727 26.2419 60.9938 26.2419 59.1892L26.2311 51.8984C26.3678 51.492 26.8456 50.5018 28.2175 50.5018C29.3108 50.5018 30.2259 51.4254 30.2039 52.4633C30.2039 52.4633 30.1967 58.6454 30.2003 59.2194C30.2167 61.9906 31.2793 61.9655 31.2793 61.9655C33.1725 61.9655 34.9141 61.9727 34.9141 61.9727C34.9141 61.9727 33.5284 61.0138 33.5284 59.2143Z" fill="black"/>
<path fill-rule="evenodd" clip-rule="evenodd" d="M39.8795 59.2108C39.8795 61.0354 41.2744 61.9728 41.2744 61.9728C41.2744 61.9728 39.5451 61.9657 37.6534 61.9657C37.6534 61.9657 36.5427 61.9821 36.5427 59.2324V59.2195L36.5463 50.9791C36.5463 48.8055 35.2881 48.2479 35.2881 48.2479H37.485C38.2592 48.2479 39.8723 48.2479 39.8723 51.321L39.8667 59.198L39.8795 59.2108Z" fill="black"/>
<path fill-rule="evenodd" clip-rule="evenodd" d="M51.0346 49.2842C51.0346 49.2842 50.6859 48.2961 49.1813 48.2961C46.9072 48.2961 46.3531 51.0012 46.3531 51.0012C46.1682 48.8635 45.5962 48.2315 43.9913 48.2315L41.7939 48.2371C41.7939 48.2371 43.067 48.7589 43.067 50.9792L43.0634 59.2073C43.0634 61.9221 44.1562 61.9672 44.1562 61.9672H47.7767C47.6835 61.9221 46.3874 60.9437 46.3874 59.1853L46.391 52.4491C46.4862 51.8371 46.8012 51.3677 47.2789 51.0581C48.4731 50.2847 50.1016 50.4682 51.0346 51.6091C51.0346 51.6091 51.0346 50.1535 51.0346 49.2842Z" fill="black"/>
<path fill-rule="evenodd" clip-rule="evenodd" d="M67.9314 49.7806C69.1573 49.7806 70.0724 50.3167 70.0724 50.3167L70.0832 48.2461H67.0378L67.0393 45.1064C67.0393 45.1064 66.24 46.4917 64.6023 47.8376C63.574 48.6833 61.4146 49.7268 61.4146 49.7268L63.7138 49.7678L63.7102 59.3167C63.7102 61.9655 64.8164 61.9655 64.8164 61.9655C66.8028 61.9655 68.4333 61.9726 68.4333 61.9726C68.4333 61.9726 67.0342 61.0352 67.0342 59.2932L67.0378 49.775C67.9923 49.7786 67.3348 49.7806 67.9314 49.7806Z" fill="black"/>
<path fill-rule="evenodd" clip-rule="evenodd" d="M78.94 53.927C76.9085 56.0535 75.3139 55.7204 74.0372 57.2784C74.0372 57.2805 74.2421 59.3911 75.8552 60.1358C76.4072 60.3915 78.6435 61.1993 80.0927 58.6966L80.0819 60.9117C80.0819 60.9117 79.1525 61.9932 76.2003 61.9932C72.6428 61.9932 70.2063 59.1932 70.2063 55.3964C70.2063 51.6632 72.1932 48.1975 75.9432 48.1785C79.6195 48.1585 81.6095 51.1307 78.94 53.927ZM76.7165 53.0557C77.3182 51.9435 77.7914 49.1205 75.7363 49.2753C73.3562 49.4537 73.8094 55.789 73.8094 55.789C74.6057 54.9234 75.7993 54.7471 76.7165 53.0557Z" fill="black"/>
<path fill-rule="evenodd" clip-rule="evenodd" d="M38.1975 47.1374C39.1305 47.1374 39.8874 46.3963 39.8874 45.4824C39.8874 44.5686 39.1305 43.827 38.1975 43.827C37.2644 43.827 36.5076 44.5686 36.5076 45.4824C36.5076 46.3963 37.2644 47.1374 38.1975 47.1374Z" fill="black"/>
<path fill-rule="evenodd" clip-rule="evenodd" d="M54.8075 60.4163C53.981 60.4163 53.3916 59.5563 53.3916 58.6747C53.3916 55.249 56.1937 54.7759 56.9434 53.8616L56.9491 59.6372C56.6183 59.9319 56.2818 60.4163 54.8075 60.4163ZM56.9434 52.5392C56.1005 54.0163 49.5473 54.3295 50.5526 59.4015C50.9499 61.4131 52.2891 62 53.9738 62C55.61 62 56.5932 61.1451 57.0044 60.3496C57.2491 61.8775 58.0209 61.9656 58.0209 61.9656C59.913 61.9656 61.6413 61.9728 61.6413 61.9728C61.6413 61.9728 60.2316 61.0354 60.2316 59.2252V51.5137C60.2316 49.6691 58.1878 48.2335 56.016 48.2335C53.9288 48.2335 52.6163 49.2391 52.6163 49.2391C52.6163 49.8562 52.6163 51.6321 52.6163 51.6321C52.6163 51.6321 53.3609 49.7362 55.25 49.7362C57.0924 49.7362 57.2292 50.6552 57.2184 51.1139C57.2184 51.1139 57.4038 51.7351 56.9434 52.5392Z" fill="black"/>
<path fill-rule="evenodd" clip-rule="evenodd" d="M86.9572 58.246C86.9772 59.2157 86.1102 60.4899 84.2662 60.4899C82.3781 60.4899 81.6233 58.5556 81.6233 58.5556V61.0065C81.6233 61.0065 82.986 61.9783 85.0733 61.9783C87.5502 61.9783 90.0549 60.0942 89.999 57.4706C89.9806 56.5475 89.6518 55.7613 89.1485 55.0832C88.3107 53.9582 86.7847 53.1725 85.6033 52.4452C84.9288 52.0296 84.5714 51.2869 84.5627 51.0255C84.5427 50.5668 84.7655 49.6381 86.61 49.6381C88.4095 49.6381 89.1756 51.5345 89.1756 51.5345L89.1684 49.2389C89.1684 49.2389 87.7914 48.1451 85.7042 48.1451C83.5324 48.1451 81.5598 49.5807 81.5977 51.4253C81.632 53.0444 82.3131 54.0935 83.6368 55.0812C84.1602 55.4717 84.7839 55.851 85.5065 56.2528C86.5599 56.8376 86.9429 57.5536 86.9572 58.246Z" fill="black"/>
</svg>

<svg width="90" height="62" fill="none" xmlns="http://www.w3.org/2000/svg"><path fill-rule="evenodd" clip-rule="evenodd" d="M50.514 3.662c-.255.266-1.152 1.625-1.152 3.307 0 .403.007 10.049 0 10.394-.014.734-.462 1.78-.83 2.149-.261.26-1.86 1.715-2.001 1.867l.906.015c.295-.283 3.374-3.014 3.696-3.381.419-.477 1.417-1.685 1.417-3.58l.005-9.989c0-1.498.697-2.33 1.057-2.73C53.981 1.3 55.194.287 55.41.06L54.46.03c-.23.23-3.628 3.3-3.945 3.63zM42.891 41.46l3.77 3.296h2.524c2.568 0 4.914-1.1 6.462-2.65 1.55-1.55 2.119-3.632 2.119-5.58v-5.404c0-1.816-1.14-2.871-1.456-3.188-.172-.173-1.27-1.21-1.27-1.21v4.147s1.21 1.25 1.448 1.503c1.118 1.19 1.106 3.354-2.435 6.809-.62.605-2.389 2.276-4.822 2.276h-6.34z" fill="#000"/><path fill-rule="evenodd" clip-rule="evenodd" d="M53.379 19.284c-.42.445-.823 1.534-.823 2.493v2.046h2.073c.805 0 1.87-.735 2.1-1.123.013-.029 0-2.03 0-2.03s.531.763 1.106 1.166c.216-.273 2.104-2.564 3.684-2.577 2.639-.02 2.042 3.311.964 4.377-.35.343-1.908 1.774-2.39 2.232-1.245 1.188-3.38.62-3.38-2.448 0 0-2.288 2.175-2.631 2.463-.346.288-1.526 1.54-1.526 1.54v5.39c0 2.586-.85 3.453-1.555 4.231-.274.302-3.183 2.957-3.57 3.246l-.952.021s1.702-1.549 2.044-1.903c.388-.404.84-1.223.84-2.586 0-.345-.043-8.471-.043-8.471H36.088c-4.602 0-5.585-5.112-5.614-6.48-.007-.402 0-4.485 0-5.118 0-.84-.537-2.258-1.395-2.695h1.298c.149.062.965.392.965 3.526 0 0-.055 3.647-.055 3.841 0 1.59 1.262 3.412 3.086 3.412l14.975-.014c.015-.404.417-1.933 1.137-2.74.408-.456 3.62-3.398 3.987-3.68l.95-.011c-.143.131-1.696 1.526-2.043 1.892zm4.917 3.07s.867 1.152 1.28 1.483c1.612 1.296 2.378-.095 1.296-1.584-.428-.586-2.087-.417-2.576.102z" fill="#000"/><path fill-rule="evenodd" clip-rule="evenodd" d="M42.238 32.01c0 .724-2.31 2.646-2.445 2.78-.167-.778-.75-1.64-2.472-3.364l2.528-2.53c1.693 1.697 2.389 2.059 2.389 3.115zM46.621 3.012c.508.508 1.598 1.884.944 2.54-.579.58-1.475 1.498-1.475 1.498-.046-.332-.885-1.128-.885-1.128s.007 2.442 0 2.745c-.03 1.103-.444 1.418-.444 1.418s2.037 2.022 2.037 4.62c0 1.26.005 2.42.005 2.669 0 .532-.135.944-.505 1.353-.184.203-2.072 2.102-2.359 2.36-.547.494-1.122.576-1.553.576h-7.02c-1.106 0-2.244-.863-2.244-1.727 0-.216.014-2.605.014-2.605.36.417.726.905 1.611.892.69-.01 1.417-.554 1.61-.748.203-.203 5.312-5.55 5.312-5.55s-2.393-2.22-3.97-3.274c-.77-.516-1.79.135-1.945.813-.483 2.127 0 5.317 0 5.317l-1.938-1.936c-.78-.783-.752-2.553.178-3.483.147-.148 1.564-1.751 3.363-1.751h2.803c1.88 0 3.937 1.875 3.937 1.875s.303-.331.303-.652c0-.964-.037-3.566-.037-3.566-1.414-1.415-1.607-2.877-.93-3.555A193.537 193.537 0 0145.16 0s-.014 1.537 1.462 3.012zm-8.807 14.117c-.692.725-.813.907-1.46 1.295h7.907c2.143 0 1.717-1.33 1.332-2.002-.787-1.376-3.276-3.935-3.276-3.935s-4.359 4.489-4.503 4.642z" fill="#000"/><path fill-rule="evenodd" clip-rule="evenodd" d="M28.798 24.331H27.5s1.395.767 1.395 2.744v6.316c0 4.11 3.386 7.91 7.502 7.91h3.437c2.064 0 2.788-.5 4.036-1.61.457-.406 1.052-1.074 1.269-1.316.72-.806 1.485-1.458 1.485-3.574v-2.067c0-1.787-1.034-2.53-1.534-3.03-.32-.32-1.199-1.16-1.199-1.16v4.233s.867.923 1.248 1.224c1.785 1.41.365 3.859-1.29 3.859-.332 0-7.09.002-7.55.014-2.779.069-6.536-2.412-6.536-6.585v-3.431c0-3.527-.965-3.527-.965-3.527z" fill="#000"/><path fill-rule="evenodd" clip-rule="evenodd" d="M37.071 32.022c0 .721-2.31 2.644-2.444 2.78-.166-.78-.75-1.64-2.472-3.365l2.527-2.53c1.695 1.697 2.39 2.057 2.39 3.115zM10.643 60.108L6.6 60.103c-1.275 0-1.178-1.06-1.29-1.965v-5.806s.885-.022 1.888-.022c1.12 0 2.515-.165 3.872.603 0 0-.976-2.355-3.88-2.355H5.31v-1.861s0-1.62-.395-2.1l2.671.01c2.312.002 4.1-.034 5.958 1.205 0 0-.356-3.062-4.821-3.062H0s1.514 1.297 1.472 3.938l.042 10.58c0 2.656 1.062 2.73 1.062 2.73h8.597c1.948 0 2.626-1.395 2.626-2.15l.03-1.015s-.62 1.276-3.186 1.276zM33.528 59.214v-7.4c0-2.872-2.344-3.635-4.09-3.635-2.311 0-3.004 1.933-3.299 2.597-.515-1.802-2.317-2.618-3.795-2.618-2.792 0-3.5 2.66-3.5 2.66s-.066-2.568-2.308-2.568l-2.197.005s1.273.524 1.273 2.744l-.004 8.217c0 2.713 1.093 2.76 1.093 2.76h3.621c-.093-.047-1.39-1.025-1.39-2.783v-7.289c.045-.324.592-1.425 2.154-1.425.885 0 1.858.923 1.836 1.961l-.004 6.772c0 2.753 1.079 2.76 1.079 2.76h3.635s-1.39-.978-1.39-2.783l-.01-7.29c.136-.407.614-1.397 1.986-1.397 1.093 0 2.008.923 1.986 1.961 0 0-.007 6.182-.004 6.756.017 2.772 1.08 2.746 1.08 2.746 1.892 0 3.634.008 3.634.008s-1.386-.96-1.386-2.759zM39.88 59.21c0 1.825 1.394 2.763 1.394 2.763s-1.729-.007-3.62-.007c0 0-1.111.016-1.111-2.734v-.013l.003-8.24c0-2.173-1.258-2.731-1.258-2.731h2.197c.774 0 2.387 0 2.387 3.073l-.005 7.877.013.013zM51.035 49.284s-.35-.988-1.854-.988c-2.274 0-2.828 2.705-2.828 2.705-.185-2.137-.757-2.77-2.362-2.77l-2.197.006s1.273.522 1.273 2.742l-.004 8.228c0 2.715 1.093 2.76 1.093 2.76h3.62c-.093-.045-1.389-1.023-1.389-2.782l.004-6.736c.095-.612.41-1.081.888-1.39 1.194-.774 2.823-.59 3.756.55v-2.325zM67.931 49.78a4.64 4.64 0 012.141.537l.011-2.07h-3.045l.001-3.14s-.799 1.385-2.437 2.73c-1.028.846-3.187 1.89-3.187 1.89l2.299.04-.004 9.55c0 2.648 1.106 2.648 1.106 2.648 1.987 0 3.617.008 3.617.008s-1.399-.938-1.399-2.68l.004-9.518c.954.004.297.006.893.006zM78.94 53.927c-2.031 2.127-3.626 1.793-4.903 3.351 0 .003.205 2.113 1.818 2.858.552.255 2.788 1.063 4.238-1.44l-.011 2.216s-.93 1.081-3.882 1.081c-3.557 0-5.994-2.8-5.994-6.597 0-3.733 1.987-7.199 5.737-7.218 3.677-.02 5.666 2.953 2.997 5.749zm-2.224-.871c.602-1.112 1.075-3.935-.98-3.78-2.38.178-1.927 6.513-1.927 6.513.797-.866 1.99-1.042 2.907-2.733zM38.197 47.137c.933 0 1.69-.74 1.69-1.655 0-.913-.757-1.655-1.69-1.655-.933 0-1.69.742-1.69 1.655 0 .914.757 1.655 1.69 1.655zM54.807 60.416c-.826 0-1.415-.86-1.415-1.741 0-3.426 2.802-3.9 3.551-4.813l.006 5.775c-.33.295-.667.78-2.142.78zm2.136-7.877c-.843 1.477-7.396 1.79-6.39 6.862.397 2.012 1.736 2.599 3.42 2.599 1.637 0 2.62-.855 3.031-1.65.245 1.527 1.017 1.616 1.017 1.616 1.892 0 3.62.007 3.62.007s-1.41-.938-1.41-2.748v-7.711c0-1.845-2.043-3.28-4.215-3.28-2.087 0-3.4 1.005-3.4 1.005v2.393s.745-1.896 2.634-1.896c1.842 0 1.98.92 1.968 1.378 0 0 .186.621-.275 1.425zM86.957 58.246c.02.97-.847 2.244-2.69 2.244-1.889 0-2.644-1.934-2.644-1.934v2.45s1.363.972 3.45.972c2.477 0 4.982-1.884 4.926-4.507-.018-.923-.347-1.71-.85-2.388-.838-1.125-2.364-1.91-3.546-2.638-.674-.415-1.032-1.158-1.04-1.42-.02-.458.203-1.387 2.047-1.387 1.8 0 2.566 1.897 2.566 1.897l-.008-2.296s-1.377-1.094-3.464-1.094c-2.172 0-4.144 1.436-4.106 3.28.034 1.62.715 2.669 2.039 3.656.523.39 1.147.77 1.87 1.172 1.053.585 1.436 1.3 1.45 1.993z" fill="#000"/></svg>
